X:821
T:You Married My Daughter
%%textfont Times-Roman 28
M:2/2
S:Colin Hume's website,  colinhume.com  - chords can also be printed below the stave.
Q:1/2=112
K:G
%%center But Yet You Didn't
P:A
|: "D7"B2d2 | "G"g2g2 "D7"fgaf | "G"g2g2 B2d2 | "D"f2f2 "A7"efge | "D"f2f2 "D7"B2d2 |
"G"g2g2 "D7"fgaf | "G"g2g2 B2d2 | "D7"fgfe dBA2 | "G"G4 :|
P:B
|: "G"BcdB | "G"G2BG- GBG2 | "D7"d2c2 ABcA | "D"F2AF- FAF2 |
"G"e2d2 BcdB | "G"G2BG- GBG2 | "D7"d2c2 ABcA | F2fe dBA2 | "G"G4 :|

